!!!OTL@@DE: Wenn's immer so w&auml;r!
!!!COM: Dittersdorf, Carl Ditters von
!!!ODT: 1790
!!!OMD: Ge&uuml;thlich
!!!ONB: Aus der Oper.: "Hokus Pokus" von C.A.Vulpius
!!!ONB: Dem Gotte der Reben vertrau ich mein Gl&uuml;ch
!!!LDT: 1790, 1799
!!!OCL: Erk, Ludwig
!!!GCO: Deutscher Liederschatz, Band 1
**kern	**kern	**kern
*staff3	*staff2	*staff1
*Ipiano	*Ipiano	*Ivox
*>[A,B,B,C]	*>[A,B,B,C]	*>[A,B,B,C]
*>norep[A,B,C]	*>norep[A,B,C]	*>norep[A,B,C]
*>A	*>A	*>A
*clefF4	*clefG2	*clefG2
*k[f#]	*k[f#]	*k[f#]
*G:	*G:	*G:
*M3/8	*M3/8	*M3/8
*MM102	*MM102	*MM102
8D/	(8d/	8d/
=1	=1	=1
8GG/L	8B/) &(8g/L&)	8g/
8GG/	8B/ 8g/	8g/
8D/J	(8d/J	8d/
=2	=2	=2
8GG/L	&(8B/&) 8g/L)	8g/
8GG/	8B/ 8g/	8g/
8D/J	(8d/J	8d/
=3	=3	=3
8GG/L	&(8B/&) 8g/L)	8g/
8GG/	8B/ 8g/	8g/
8D/J	(8d/J	8d/
=4	=4	=4
&(8GG/&)	8B/ 8g/)	8g/
8r	8r	8r
8D\	[8d/ 8f#/ (8a/	8a/
=5	=5	=5
&(8G\L&)	8d/] 8g/ 8b/L)	8b\
8G\	8d/ 8g/ 8b/	8b\
8D\J	[8d/ 8f#/ (8a/J	8a/
=6	=6	=6
&(8G\L&)	8d/] 8g/ 8b/L)	8b\
8G\	8d/ 8g/ 8b/	8b\
8D\J	[8d/ 8f#/ (8a/J	8a/
=7	=7	=7
&(8G\L&)	8d'/] 8g'/ 8b'/L)	8b\
8G\	8d/ 8g/ 8b/	8b\
8D\J	[8d/ 8f#/ (8a/J	8a/
=8	=8	=8
&(8G/L&)	4d/] 4g/ 4b/)	4b\
8GG/J	.	.
=!|:	=!|:	=!|:
*>B	*>B	*>B
8G\ 8B\	8g\ 8dd\	8dd\
=9	=9	=9
*^	*	*
8B/L	4G\	8g\ (8dd\L	8dd\
8d/	.	8b\ 8gg\)	8gg\
8G/J	8G\	8g\ 8b\J	8b\
*v	*v	*	*
=10	=10	=10
4D\	(8b/ 8dd/L	8dd\
.	8a/) 8cc/	8cc\
8D\ 8A\	8f#/ 8cc/J	8cc\
=11	=11	=11
*^	*^	*
8A/L	4D\	(8cc/L	4f#\	8cc\
8c/J	.	8ee/)	.	8ee\
8ryy	8D\	8a/J	8f#\	8a/
*v	*v	*	*	*
*	*v	*v	*
=12	=12	=12
8G/L	(8a/ 8cc/L	8cc\
8GG/J	8g/) 8b/J	8b\
=:|!	=:|!	=:|!
*>C	*>C	*>C
8D\	8f#/ 8a/	8a/
=13	=13	=13
8G/L	16g/ 16b/LL	8b\
.	16d/	.
8GG/ 8G/	16g/ 16b/	8b\
.	16d/	.
8GG/ 8G/J	16g/ 16b/	8b\
.	16d/JJ	.
=14	=14	=14
8AA\ 8A\L	16f#/ 16a/LL	8a/
.	16d/	.
8AA\ 8A\	16f#/ 16a/	8a/
.	16d/	.
8AA\ 8A\J	16f#/ 16a/	8a/
.	16d/JJ	.
=15	=15	=15
8AA\ 8A\L	16g/ 16a/ 16cc#/LL	8cc#\
.	16e/	.
8AA\ 8A\	16g/ 16a/ 16cc#/	8cc#\
.	16e/	.
8AA\ 8A\J	16g/ 16a/ 16cc#/	8cc#\
.	16e/JJ	.
=16	=16	=16
4D\ 4A\	4f#/ 4a/ 4dd/	4dd\
8D\	(8d/	8d/
=17	=17	=17
8GG/L	8B/) &(8g/L&)	8g/
8GG/	8B/ 8d/ 8g/	16g/LL
.	.	16a/JJ
8GG/J	8B/ 8d/ (8g/J	16b/LL
.	.	16g/JJ
=18	=18	=18
8C/L	8c/ &(8e/L&))	8e/
8C/	8c/ 8e/	8e/
8C/J	8c/ (8e/J	8e/
=19	=19	=19
8AA/L	&(8e/&) 8cc/L)	8cc\
8C/	8c/ 8e/ 8a/	8a/
8D/J	8c/ 8d/ 8f#/J	8f#/
=20	=20	=20
8GG/L	8B/ 8d/ 8g/	4g/
16G/Jk	8r	.
16d\LL	.	.
16B\	16g\ (16b\LL	16b\LL
&(16G\JJ&)	(16b\ 16dd\JJ)	16dd\JJ
=21	=21	=21
16F#\LL	16b\ 16dd\LL	16dd\LL
16d\	(16a\) &(16cc\JJ&)	16cc\JJ
16D\	16a/ 16cc/LL	16cc\LL
16d\	16g#/) 16b/JJ	16b\JJ
16F#\	16a\ (16cc\LL	16cc\LL
16d\JJ	16cc\ 16ee\JJ)	16ee\JJ
=22	=22	=22
16G\LL	16cc\ (16ee\LL	16ee\LL
16d\	16b\ 16dd\J)	16dd\JJ
16B\	8b\ 8dd\J	8dd\
16d\	.	.
16G\	16gn\ (16b\LL	16b\LL
16d\JJ	(16b\ 16dd\JJ)	16dd\JJ
=23	=23	=23
16F#\LL	16b\ 16dd\LL	16dd\LL
16d\	16a\) &(16cc\JJ&)	16cc\JJ
16D\	(16a/ 16cc/LL	16cc\LL
(16d\	16g#/) 16b/JJ	16b\JJ
16F#\	16a\ (16cc\LL	16cc\LL
16d\JJ)	16cc\ 16ee\JJ)	16ee\JJ
=24	=24	=24
16G\LL	4b\ 4dd\	4dd\
16d\	.	.
16B\	.	.
16d\	.	.
16B\	16gn\ (16b\LL	16b\LL
16G\JJ	16b\ 16dd\JJ)	16dd\JJ
=25	=25	=25
16F#\LL	16b\ (16dd\LL	16dd\LL
16d\	16a\ 16cc\JJ)	16cc\JJ
16D\	(16a/ 16cc/LL	16cc\LL
16d\	16g#/) 16b/JJ	16b\JJ
16F#\	16a\ (16cc\LL	16cc\LL
16d\JJ	16cc\ 16ee\JJ)	16ee\JJ
=26	=26	=26
16G\LL	16cc\ (16ee\LL	16ee\LL
16d\	16b\ 16dd\J	16dd\JJ
16B\	8b\ 8dd\J)	8dd\
16d\JJ	.	.
8G\	16gn\ (16b\LL	16b\LL
.	16b\ 16dd\JJ)	16dd\JJ
=27	=27	=27
8C\L	16b\ (16dd\LL	16dd\LL
.	16a\ 16cc\JJ)	16cc\JJ
8D\	8g/ 8b/L	8b\
8D\ 8c\J	8f#/ 8a/J	8a/
=28	=28	=28
8.G\ 8.B\L	16g\LL	4g/
.	(16f#\	.
.	16g\	.
(16d\L	16b\	.
16B\	16dd\	8r
16G\JJ)	16gg\JJ)	.
=29	=29	=29
8D\ 8F#\L	16dd\ (16bb\LL	4.r
.	16cc\ 16aa\JJ	.
8D\ 8F#\	16cc\ (16aa\LL)	.
.	16b\ 16gg#\JJ	.
8D\ 8F#\J	16cc\ 16aa\LL)	.
.	16dd\ &(16bb\JJ&)	.
=30	=30	=30
(16G\LL	8b\ 8ggn\	4.r
16F#\	.	.
16G\	16r	.
16B\	(16ddd\LL	.
16d\	16bb\	.
16g\JJ)	16gg\JJ)	.
*clefG2	*	*
=31	=31	=31
*^	*^	*
(16b/LL	8d\L	(8ff#/L	16dd\LL	4.r
16a/JJ	.	.	(16cc\JJ)	.
(16a/LL)	8d\	8ff#/	16cc\LL	.
16g#/JJ	.	.	(16b\JJ)	.
16a/LL)	8d\J	8ff#/J	16cc\LL	.
16b/JJ	.	.	16dd\JJ)	.
*v	*v	*	*	*
*	*v	*v	*
=32	=32	=32
8gn/L	8b/ 8gg/L	4r
*clefF4	*	*
8GG/ 8G/J	8B/ 8d/ 8g/J	.
==	==	==
*-	*-	*-
!!!ENC: Craig Stuart Sapp
!!!END: 2004/05/27/
!!!EFL: 120/651
